apps/www/public/images/logos/publicity/pwc.svg

<svg width="113" height="60" viewBox="0 0 113 60" fill="none" xmlns="http://www.w3.org/2000/svg">
<g clip-path="url(#clip0_2080_14304)">
<mask id="mask0_2080_14304" style="mask-type:luminance" maskUnits="userSpaceOnUse" x="7" y="18" width="96" height="56">
<path d="M102.931 18.7109H7.60767V73.1893H102.931V18.7109Z" fill="white"/>
</mask>
<g mask="url(#mask0_2080_14304)">
<path d="M102.931 42.1035H76.7659V35.421H102.931V42.1035Z" fill="#7E7E7E"/>
<path d="M99.5322 42.1035H76.7659V25.39H99.5322V42.1035Z" fill="#7E7E7E"/>
<path d="M90.1264 42.1034H76.7659V18.7109H90.1264V42.1034Z" fill="#7E7E7E"/>
<path d="M92.7547 42.1034H76.7659V21.3212H92.7547V42.1034Z" fill="#7E7E7E"/>
<path d="M76.762 21.3251V42.1011H90.1247V21.3251H76.762Z" fill="#7E7E7E"/>
<path d="M63.3679 42.1035H76.7655V45.4449H63.3679V42.1035Z" fill="#3E3E3E"/>
<path d="M90.0464 25.3862V35.4672H92.7626V25.3862H90.0464Z" fill="#7E7E7E"/>
<path d="M76.762 25.3862V42.1012H90.1247V25.3862H76.762Z" fill="#7E7E7E"/>
<path d="M85.1208 35.5326H76.7659V32.0717H85.1208V35.5326Z" fill="#505050"/>
<path d="M76.762 35.4255V42.101H99.5398V35.4255H76.762Z" fill="#7E7E7E"/>
<path d="M90.1108 35.4255V42.101H92.7625V35.4255H90.1108Z" fill="#7E7E7E"/>
<path d="M76.762 35.4255V42.101H90.1247V35.4255H76.762Z" fill="#505050"/>
<path d="M76.762 35.4255V42.101H85.129V35.4255H76.762Z" fill="#3E3E3E"/>
<path d="M65.3039 24.7547C63.0244 25.1591 61.8086 26.8777 61.8086 29.86C61.8086 32.8928 63.4296 34.9148 65.8105 34.9148C66.9757 34.9148 67.9888 34.5104 70.1164 33.4489C70.1164 35.9257 70.1164 35.9257 70.1164 35.9257C67.533 37.1388 66.0132 37.4422 63.9869 37.4422C61.7072 37.4422 60.0863 36.8861 58.8198 35.5213C57.5027 34.2072 56.7936 32.4886 56.7936 30.5171C56.7936 26.2206 60.0356 23.2384 64.7467 23.2384C67.8369 23.2384 70.015 24.7043 70.015 26.7767C70.015 28.1415 69.002 29.1018 67.533 29.1018C66.773 29.1018 66.1651 28.8491 65.3039 28.3941" fill="#7E7E7E"/>
<path d="M53.9058 30.5171C55.9828 27.9392 56.7428 26.8777 56.7428 25.6141C56.7428 24.3505 55.7295 23.2384 54.3112 23.2384C53.5007 23.2384 52.7407 23.6932 52.3861 24.0976C52.3861 29.4051 52.3861 29.4051 52.3861 29.4051C48.9922 33.9543 48.9922 33.9543 48.9922 33.9543C48.9922 23.6428 48.9922 23.6428 48.9922 23.6428C45.7501 23.6428 45.7501 23.6428 45.7501 23.6428C40.3802 32.4886 40.3802 32.4886 40.3802 32.4886C40.3802 23.6428 40.3802 23.6428 40.3802 23.6428C38.5567 23.6428 38.5567 23.6428 38.5567 23.6428C33.6429 24.7547 33.6429 24.7547 33.6429 24.7547C33.6429 26.0185 33.6429 26.0185 33.6429 26.0185C36.3277 26.2712 36.3277 26.2712 36.3277 26.2712C36.3277 37.2399 36.3277 37.2399 36.3277 37.2399C39.7218 37.2399 39.7218 37.2399 39.7218 37.2399C44.8888 28.748 44.8888 28.748 44.8888 28.748C44.8888 37.2399 44.8888 37.2399 44.8888 37.2399C48.6882 37.2399 48.6882 37.2399 48.6882 37.2399" fill="#7E7E7E"/>
<path d="M23.3595 35.5214C23.7648 35.5214 23.8661 35.5214 24.1194 35.5214C26.8549 35.5214 28.3746 33.8534 28.3746 30.5172C28.3746 27.7372 27.1588 26.2207 24.8792 26.2207C24.5753 26.2207 24.1194 26.2713 23.3595 26.423V35.5214ZM23.3595 41.486C25.5885 41.9915 25.5885 41.9915 25.5885 41.9915C25.5885 43.2551 25.5885 43.2551 25.5885 43.2551C16.8247 43.2551 16.8247 43.2551 16.8247 43.2551C16.8247 41.9915 16.8247 41.9915 16.8247 41.9915C18.851 41.486 18.851 41.486 18.851 41.486C18.851 26.2207 18.851 26.2207 18.851 26.2207C16.6221 26.2207 16.6221 26.2207 16.6221 26.2207C16.6221 24.9571 16.6221 24.9571 16.6221 24.9571C21.9411 23.3395 21.9411 23.3395 21.9411 23.3395C23.3595 23.3395 23.3595 23.3395 23.3595 23.3395C23.3595 25.1592 23.3595 25.1592 23.3595 25.1592C25.8417 23.6429 26.7029 23.3901 28.02 23.3901C30.9582 23.3901 33.1871 26.1197 33.1871 29.9107C33.1871 34.2578 30.1983 37.24 25.6391 37.24C25.1325 37.24 24.2714 37.1895 23.3595 37.1389" fill="#7E7E7E"/>
</g>
</g>
<defs>
<clipPath id="clip0_2080_14304">
<rect width="92" height="27" fill="white" transform="translate(10.4304 18.5)"/>
</clipPath>
</defs>
</svg>

<svg xmlns="http://www.w3.org/2000/svg" width="113" height="60" fill="none" viewBox="0 0 113 60"><g clip-path="url(#a)"><mask id="b" width="96" height="56" x="7" y="18" maskUnits="userSpaceOnUse" style="mask-type:luminance"><path fill="#fff" d="M102.931 18.71H7.608v54.48h95.323z"/></mask><g mask="url(#b)"><path fill="#7e7e7e" d="M102.931 42.104H76.766V35.42h26.165z"/><path fill="#7e7e7e" d="M99.532 42.104H76.766V25.39h22.766z"/><path fill="#7e7e7e" d="M90.126 42.103h-13.36V18.711h13.36z"/><path fill="#7e7e7e" d="M92.755 42.103h-15.99V21.321h15.99z"/><path fill="#7e7e7e" d="M76.762 21.325v20.776h13.363V21.325z"/><path fill="#3e3e3e" d="M63.368 42.104h13.398v3.34H63.368z"/><path fill="#7e7e7e" d="M90.046 25.386v10.081h2.717v-10.08z"/><path fill="#7e7e7e" d="M76.762 25.386v16.715h13.363V25.386z"/><path fill="#505050" d="M85.12 35.533h-8.354v-3.461h8.355z"/><path fill="#7e7e7e" d="M76.762 35.426V42.1H99.54v-6.675z"/><path fill="#7e7e7e" d="M90.11 35.426V42.1h2.653v-6.675z"/><path fill="#505050" d="M76.762 35.426V42.1h13.363v-6.675z"/><path fill="#3e3e3e" d="M76.762 35.426V42.1h8.367v-6.675z"/><path fill="#7e7e7e" d="M65.304 24.755c-2.28.404-3.495 2.123-3.495 5.105 0 3.033 1.62 5.055 4.002 5.055 1.165 0 2.178-.405 4.305-1.466v2.477c-2.583 1.213-4.103 1.516-6.13 1.516-2.279 0-3.9-.556-5.166-1.92-1.317-1.315-2.026-3.033-2.026-5.005 0-4.296 3.242-7.279 7.953-7.279 3.09 0 5.268 1.466 5.268 3.539 0 1.364-1.013 2.325-2.482 2.325-.76 0-1.368-.253-2.23-.708M53.906 30.517c2.077-2.578 2.837-3.64 2.837-4.903 0-1.264-1.014-2.376-2.432-2.376-.81 0-1.57.455-1.925.86v5.307l-3.394 4.55V23.642H45.75l-5.37 8.846v-8.846h-1.823l-4.914 1.112v1.264l2.685.252V37.24h3.394l5.167-8.492v8.492h3.8M23.36 35.521h.76c2.735 0 4.255-1.668 4.255-5.004 0-2.78-1.216-4.296-3.496-4.296-.304 0-.76.05-1.52.202zm0 5.965 2.229.506v1.263h-8.764v-1.264l2.026-.505V26.221h-2.229v-1.264l5.32-1.617h1.418v1.82c2.482-1.517 3.343-1.77 4.66-1.77 2.938 0 5.167 2.73 5.167 6.52 0 4.348-2.989 7.33-7.548 7.33-.506 0-1.368-.05-2.28-.101"/></g></g><defs><clipPath id="a"><path fill="#fff" d="M10.43 18.5h92v27h-92z"/></clipPath></defs></svg>
